X: 803
T: KT98
R: Jig
M: 9/8
L: 1/8
K: G
|: "G"GAB d2G "G/B"ABd|"C"e2d efg "D"f2d|"G"GAB d2G "G/B"ABd|"C"e2A ABc "D"A3|
"G"GAB d2G "G/B"ABd|"C"e2d efg "D"f2a|"Em"geg "Bm/D"fdf "C"ece|"G/B"d2G "C"GAB "D"A3:|
|:"C"efg f2d "D"Adf|"Em"g2G GAB "D"ABd|"C"efg f2d "D"Adf|"G"gdB dBG"G/B"d3|
"C"efg f2d "D"Adf|"G"g2G GAB "D/F#"ABd|"Em"geg "Bm"fdf "C"ece|"G/B"d2G "C"GAB "D"A3:|

%%newpage
%%textfont * 14
%%begintext justify
%%Tunes for Specific Dances
%%endtext
